media/bands/sticks_open.svg

<svg xmlns="http://www.w3.org/2000/svg" xml:space="preserve" viewBox="0 0 1100 570">
  <path d="M566.074 668.926h-250v-40h250z" style="fill:#616161;stroke-width:1.84012;stroke-linecap:round;stroke-linejoin:round;paint-order:stroke fill markers" transform="translate(-266.074 -598.926)"/>
  <path d="M755 440V190h40v250z" style="fill:#616161;stroke-width:1.84012;stroke-linecap:round;stroke-linejoin:round;paint-order:stroke fill markers" transform="rotate(-90 717.5 107.5)"/>
  <path d="M775 390a50 50 0 0 1 50 50 50 50 0 0 1-50 50 50 50 0 0 1-50-50 50 50 0 0 1 50-50" style="display:inline;fill:#616161;stroke-width:2.25367;stroke-linecap:round;stroke-linejoin:round;paint-order:stroke fill markers" transform="rotate(-90 467.5 357.5)"/>
  <path d="M755 440V190h40v250z" style="fill:#616161;stroke-width:1.84012;stroke-linecap:round;stroke-linejoin:round;paint-order:stroke fill markers" transform="rotate(-90 467.5 357.5)"/>
  <path d="M755 440V190h40v250z" style="fill:#616161;stroke-width:1.84012;stroke-linecap:round;stroke-linejoin:round;paint-order:stroke fill markers" transform="rotate(-90 592.5 232.5)"/>
  <path d="M566.074 668.926h-250v-40h250z" style="fill:#616161;stroke-width:1.84012;stroke-linecap:round;stroke-linejoin:round;paint-order:stroke fill markers" transform="matrix(-1 0 0 1 1366.074 -358.926)"/>
  <path d="M755 440V190h40v250z" style="fill:#616161;stroke-width:1.84012;stroke-linecap:round;stroke-linejoin:round;paint-order:stroke fill markers" transform="matrix(0 -1 -1 0 490 1065)"/>
  <path d="M775 390a50 50 0 0 1 50 50 50 50 0 0 1-50 50 50 50 0 0 1-50-50 50 50 0 0 1 50-50" style="display:inline;fill:#616161;stroke-width:2.25367;stroke-linecap:round;stroke-linejoin:round;paint-order:stroke fill markers" transform="matrix(0 -1 -1 0 990 1065)"/>
  <path d="M755 440V190h40v250z" style="fill:#616161;stroke-width:1.84012;stroke-linecap:round;stroke-linejoin:round;paint-order:stroke fill markers" transform="matrix(0 -1 -1 0 990 1065)"/>
  <path d="M775 390a50 50 0 0 1 50 50 50 50 0 0 1-50 50 50 50 0 0 1-50-50 50 50 0 0 1 50-50" style="display:inline;fill:#616161;stroke-width:2.25367;stroke-linecap:round;stroke-linejoin:round;paint-order:stroke fill markers" transform="matrix(0 -1 -1 0 740 1065)"/>
  <path d="M755 440V190h40v250z" style="fill:#616161;stroke-width:1.84012;stroke-linecap:round;stroke-linejoin:round;paint-order:stroke fill markers" transform="matrix(0 -1 -1 0 740 1065)"/>
  <path d="M516.074 648.926a50 50 0 0 1 50-50 50 50 0 0 1 50 50 50 50 0 0 1-50 50 50 50 0 0 1-50-50" style="display:inline;fill:#616161;stroke-width:2.25367;stroke-linecap:round;stroke-linejoin:round;paint-order:stroke fill markers" transform="translate(-266.074 -128.926)"/>
  <path d="M566.074 668.926h-250v-40h250z" style="fill:#616161;stroke-width:1.84012;stroke-linecap:round;stroke-linejoin:round;paint-order:stroke fill markers" transform="translate(-266.074 -128.926)"/>
  <path d="M755 440V190h40v250z" style="fill:#616161;stroke-width:1.84012;stroke-linecap:round;stroke-linejoin:round;paint-order:stroke fill markers" transform="rotate(-90 952.5 342.5)"/>
  <path d="M775 390a50 50 0 0 1 50 50 50 50 0 0 1-50 50 50 50 0 0 1-50-50 50 50 0 0 1 50-50" style="display:inline;fill:#616161;stroke-width:2.25367;stroke-linecap:round;stroke-linejoin:round;paint-order:stroke fill markers" transform="rotate(-90 702.5 592.5)"/>
  <path d="M755 440V190h40v250z" style="fill:#616161;stroke-width:1.84012;stroke-linecap:round;stroke-linejoin:round;paint-order:stroke fill markers" transform="rotate(-90 702.5 592.5)"/>
  <path d="M775 390a50 50 0 0 1 50 50 50 50 0 0 1-50 50 50 50 0 0 1-50-50 50 50 0 0 1 50-50" style="display:inline;fill:#616161;stroke-width:2.25367;stroke-linecap:round;stroke-linejoin:round;paint-order:stroke fill markers" transform="rotate(-90 827.5 467.5)"/>
  <path d="M755 440V190h40v250z" style="fill:#616161;stroke-width:1.84012;stroke-linecap:round;stroke-linejoin:round;paint-order:stroke fill markers" transform="rotate(-90 827.5 467.5)"/>
  <path d="M250 50a50 50 0 0 1 50-50 50 50 0 0 1 50 50 50 50 0 0 1-50 50 50 50 0 0 1-50-50m500 0a50 50 0 0 1 50-50 50 50 0 0 1 50 50 50 50 0 0 1-50 50 50 50 0 0 1-50-50m100 240a50 50 0 0 0-50-50 50 50 0 0 0-50 50 50 50 0 0 0 50 50 50 50 0 0 0 50-50m-750 0a50 50 0 0 0-50-50 50 50 0 0 0-50 50 50 50 0 0 0 50 50 50 50 0 0 0 50-50m900 230a50 50 0 0 1 50-50 50 50 0 0 1 50 50 50 50 0 0 1-50 50 50 50 0 0 1-50-50M0 520a50 50 0 0 1 50-50 50 50 0 0 1 50 50 50 50 0 0 1-50 50 50 50 0 0 1-50-50" style="display:inline;fill:#ff4136;stroke-width:2.25367;stroke-linecap:round;stroke-linejoin:round;paint-order:stroke fill markers"/>
</svg>

<?xml version="1.0" encoding="UTF-8" standalone="no"?>
<svg
   xml:space="preserve"
   viewBox="0 0 1100 570"
   version="1.1"
   id="svg19"
   sodipodi:docname="sticks_open.svg"
   inkscape:version="1.4.2 (ebf0e940d0, 2025-05-08)"
   xmlns:inkscape="http://www.inkscape.org/namespaces/inkscape"
   xmlns:sodipodi="http://sodipodi.sourceforge.net/DTD/sodipodi-0.dtd"
   xmlns="http://www.w3.org/2000/svg"
   xmlns:svg="http://www.w3.org/2000/svg"><defs
   id="defs19" /><sodipodi:namedview
   id="namedview19"
   pagecolor="#ffffff"
   bordercolor="#000000"
   borderopacity="0.25"
   inkscape:showpageshadow="2"
   inkscape:pageopacity="0.0"
   inkscape:pagecheckerboard="0"
   inkscape:deskcolor="#d1d1d1"
   inkscape:zoom="0.77090909"
   inkscape:cx="646.63915"
   inkscape:cy="566.21462"
   inkscape:window-width="3838"
   inkscape:window-height="2158"
   inkscape:window-x="0"
   inkscape:window-y="0"
   inkscape:window-maximized="1"
   inkscape:current-layer="svg19" />
  
  
  
  
  
  <path
   d="M566.074 668.926h-250v-40h250z"
   style="fill:#616161;stroke-width:1.84012;stroke-linecap:round;stroke-linejoin:round;paint-order:stroke fill markers"
   transform="matrix(-1 0 0 1 1366.074 -358.926)"
   id="path6" />
  <path
   d="M755 440V190h40v250z"
   style="fill:#616161;stroke-width:1.84012;stroke-linecap:round;stroke-linejoin:round;paint-order:stroke fill markers"
   transform="matrix(0 -1 -1 0 490 1065)"
   id="path7" />
  <path
   d="M775 390a50 50 0 0 1 50 50 50 50 0 0 1-50 50 50 50 0 0 1-50-50 50 50 0 0 1 50-50"
   style="display:inline;fill:#616161;stroke-width:2.25367;stroke-linecap:round;stroke-linejoin:round;paint-order:stroke fill markers"
   transform="matrix(0 -1 -1 0 990 1065)"
   id="path8" />
  <path
   d="M755 440V190h40v250z"
   style="fill:#616161;stroke-width:1.84012;stroke-linecap:round;stroke-linejoin:round;paint-order:stroke fill markers"
   transform="matrix(0 -1 -1 0 990 1065)"
   id="path9" />
  <path
   d="M775 390a50 50 0 0 1 50 50 50 50 0 0 1-50 50 50 50 0 0 1-50-50 50 50 0 0 1 50-50"
   style="display:inline;fill:#616161;stroke-width:2.25367;stroke-linecap:round;stroke-linejoin:round;paint-order:stroke fill markers"
   transform="matrix(0 -1 -1 0 740 1065)"
   id="path10" />
  <path
   d="M755 440V190h40v250z"
   style="fill:#616161;stroke-width:1.84012;stroke-linecap:round;stroke-linejoin:round;paint-order:stroke fill markers"
   transform="matrix(0 -1 -1 0 740 1065)"
   id="path11" />
  
  
  
  
  
  
  
  <g
   id="g24"
   transform="translate(0,-470)"><g
     id="g19"><path
       d="m 516.074,648.926 a 50,50 0 0 1 50,-50 50,50 0 0 1 50,50 50,50 0 0 1 -50,50 50,50 0 0 1 -50,-50"
       style="display:inline;fill:#616161;stroke-width:2.25367;stroke-linecap:round;stroke-linejoin:round;paint-order:stroke fill markers"
       transform="translate(-266.074,-128.926)"
       id="path12" /><path
       d="m 566.074,668.926 h -250 v -40 h 250 z"
       style="fill:#616161;stroke-width:1.84012;stroke-linecap:round;stroke-linejoin:round;paint-order:stroke fill markers"
       transform="translate(-266.074,-128.926)"
       id="path13" /><path
       d="M 755,440 V 190 h 40 v 250 z"
       style="fill:#616161;stroke-width:1.84012;stroke-linecap:round;stroke-linejoin:round;paint-order:stroke fill markers"
       transform="rotate(-90,952.5,342.5)"
       id="path14" /><path
       d="m 775,390 a 50,50 0 0 1 50,50 50,50 0 0 1 -50,50 50,50 0 0 1 -50,-50 50,50 0 0 1 50,-50"
       style="display:inline;fill:#616161;stroke-width:2.25367;stroke-linecap:round;stroke-linejoin:round;paint-order:stroke fill markers"
       transform="rotate(-90,702.5,592.5)"
       id="path15" /><path
       d="M 755,440 V 190 h 40 v 250 z"
       style="fill:#616161;stroke-width:1.84012;stroke-linecap:round;stroke-linejoin:round;paint-order:stroke fill markers"
       transform="rotate(-90,702.5,592.5)"
       id="path16" /><path
       d="m 775,390 a 50,50 0 0 1 50,50 50,50 0 0 1 -50,50 50,50 0 0 1 -50,-50 50,50 0 0 1 50,-50"
       style="display:inline;fill:#616161;stroke-width:2.25367;stroke-linecap:round;stroke-linejoin:round;paint-order:stroke fill markers"
       transform="rotate(-90,827.5,467.5)"
       id="path17" /><path
       d="M 755,440 V 190 h 40 v 250 z"
       style="fill:#616161;stroke-width:1.84012;stroke-linecap:round;stroke-linejoin:round;paint-order:stroke fill markers"
       transform="rotate(-90,827.5,467.5)"
       id="path18" /></g><path
     style="display:inline;fill:#ff4136;stroke-width:2.25367;stroke-linecap:round;stroke-linejoin:round;paint-order:stroke fill markers"
     d="M 0,520 A 50,50 0 0 1 50,470 50,50 0 0 1 100,520 50,50 0 0 1 50,570 50,50 0 0 1 0,520"
     id="path24" /><path
     style="display:inline;fill:#ff4136;stroke-width:2.25367;stroke-linecap:round;stroke-linejoin:round;paint-order:stroke fill markers"
     d="m 1000,520 a 50,50 0 0 1 50,-50 50,50 0 0 1 50,50 50,50 0 0 1 -50,50 50,50 0 0 1 -50,-50"
     id="path23" /></g><path
   style="display:inline;fill:#ff4136;stroke-width:2.25367;stroke-linecap:round;stroke-linejoin:round;paint-order:stroke fill markers"
   d="M 100,290 A 50,50 0 0 0 50,240 50,50 0 0 0 0,290 50,50 0 0 0 50,340 50,50 0 0 0 100,290"
   id="path22" /><path
   style="display:inline;fill:#ff4136;stroke-width:2.25367;stroke-linecap:round;stroke-linejoin:round;paint-order:stroke fill markers"
   d="m 850,290 a 50,50 0 0 0 -50,-50 50,50 0 0 0 -50,50 50,50 0 0 0 50,50 50,50 0 0 0 50,-50"
   id="path21" /><g
   id="g25"
   transform="translate(0,470)"><g
     id="g20"><path
       d="m 566.074,668.926 h -250 v -40 h 250 z"
       style="fill:#616161;stroke-width:1.84012;stroke-linecap:round;stroke-linejoin:round;paint-order:stroke fill markers"
       transform="translate(-266.074,-598.926)"
       id="path1" /><path
       d="M 755,440 V 190 h 40 v 250 z"
       style="fill:#616161;stroke-width:1.84012;stroke-linecap:round;stroke-linejoin:round;paint-order:stroke fill markers"
       transform="rotate(-90,717.5,107.5)"
       id="path2" /><path
       d="m 775,390 a 50,50 0 0 1 50,50 50,50 0 0 1 -50,50 50,50 0 0 1 -50,-50 50,50 0 0 1 50,-50"
       style="display:inline;fill:#616161;stroke-width:2.25367;stroke-linecap:round;stroke-linejoin:round;paint-order:stroke fill markers"
       transform="rotate(-90,467.5,357.5)"
       id="path3" /><path
       d="M 755,440 V 190 h 40 v 250 z"
       style="fill:#616161;stroke-width:1.84012;stroke-linecap:round;stroke-linejoin:round;paint-order:stroke fill markers"
       transform="rotate(-90,467.5,357.5)"
       id="path4" /><path
       d="M 755,440 V 190 h 40 v 250 z"
       style="fill:#616161;stroke-width:1.84012;stroke-linecap:round;stroke-linejoin:round;paint-order:stroke fill markers"
       transform="rotate(-90,592.5,232.5)"
       id="path5" /></g><path
     style="display:inline;fill:#ff4136;stroke-width:2.25367;stroke-linecap:round;stroke-linejoin:round;paint-order:stroke fill markers"
     d="M 750,50 A 50,50 0 0 1 800,0 50,50 0 0 1 850,50 50,50 0 0 1 800,100 50,50 0 0 1 750,50"
     id="path20" /><path
     style="display:inline;fill:#ff4136;stroke-width:2.25367;stroke-linecap:round;stroke-linejoin:round;paint-order:stroke fill markers"
     d="M 250,50 A 50,50 0 0 1 300,0 50,50 0 0 1 350,50 50,50 0 0 1 300,100 50,50 0 0 1 250,50"
     id="path19" /></g>
</svg>
